images/icon-site.svg

<?xml version="1.0" encoding="UTF-8"?>
<svg width="14px" height="10px" viewBox="0 0 14 10" version="1.1" xmlns="http://www.w3.org/2000/svg" xmlns:xlink="http://www.w3.org/1999/xlink">
    <!-- Generator: Sketch 51.2 (57519) - http://www.bohemiancoding.com/sketch -->
    <title>icon</title>
    <desc>Created with Sketch.</desc>
    <defs>
        <path d="M4,9 L2,9 C1.4478125,9 1,9.4478125 1,10 L1,12 C1,12.5521875 1.4478125,13 2,13 L4,13 C4.5521875,13 5,12.5521875 5,12 L5,10 C5,9.4478125 4.5521875,9 4,9 Z M9,9 L7,9 C6.4478125,9 6,9.4478125 6,10 L6,12 C6,12.5521875 6.4478125,13 7,13 L9,13 C9.5521875,13 10,12.5521875 10,12 L10,10 C10,9.4478125 9.5521875,9 9,9 Z M14,9 L12,9 C11.4478125,9 11,9.4478125 11,10 L11,12 C11,12.5521875 11.4478125,13 12,13 L14,13 C14.5521875,13 15,12.5521875 15,12 L15,10 C15,9.4478125 14.5521875,9 14,9 Z M4,3 L2,3 C1.4478125,3 1,3.4478125 1,4 L1,6 C1,6.5521875 1.4478125,7 2,7 L4,7 C4.5521875,7 5,6.5521875 5,6 L5,4 C5,3.4478125 4.5521875,3 4,3 Z M9,3 L7,3 C6.4478125,3 6,3.4478125 6,4 L6,6 C6,6.5521875 6.4478125,7 7,7 L9,7 C9.5521875,7 10,6.5521875 10,6 L10,4 C10,3.4478125 9.5521875,3 9,3 Z M14,3 L12,3 C11.4478125,3 11,3.4478125 11,4 L11,6 C11,6.5521875 11.4478125,7 12,7 L14,7 C14.5521875,7 15,6.5521875 15,6 L15,4 C15,3.4478125 14.5521875,3 14,3 Z" id="path-1"></path>
    </defs>
    <g id="导航栏下拉菜单-navbar-dropdown" stroke="none" stroke-width="1" fill="none" fill-rule="evenodd">
        <g id="navbar-dropdown/product/col3-with-link" transform="translate(-1409.000000, -95.000000)">
            <g id="links" transform="translate(360.000000, 64.000000)">
                <g id="item" transform="translate(1000.000000, 0.000000)">
                    <g id="Group" transform="translate(48.000000, 24.000000)">
                        <g id="grip-horizontal" transform="translate(0.000000, 4.000000)">
                            <mask id="mask-2" fill="white">
                                <use xlink:href="#path-1"></use>
                            </mask>
                            <g fill-rule="nonzero"></g>
                            <g id="grey/900(dark)" mask="url(#mask-2)" fill="#3B3E40" fill-rule="evenodd">
                                <rect id="base" x="0" y="0" width="16" height="16"></rect>
                            </g>
                        </g>
                    </g>
                </g>
            </g>
        </g>
    </g>
</svg>

<svg width="14" height="10" xmlns="http://www.w3.org/2000/svg" xmlns:xlink="http://www.w3.org/1999/xlink"><defs><path d="M4 9H2a1 1 0 00-1 1v2a1 1 0 001 1h2a1 1 0 001-1v-2a1 1 0 00-1-1zm5 0H7a1 1 0 00-1 1v2a1 1 0 001 1h2a1 1 0 001-1v-2a1 1 0 00-1-1zm5 0h-2a1 1 0 00-1 1v2a1 1 0 001 1h2a1 1 0 001-1v-2a1 1 0 00-1-1zM4 3H2a1 1 0 00-1 1v2a1 1 0 001 1h2a1 1 0 001-1V4a1 1 0 00-1-1zm5 0H7a1 1 0 00-1 1v2a1 1 0 001 1h2a1 1 0 001-1V4a1 1 0 00-1-1zm5 0h-2a1 1 0 00-1 1v2a1 1 0 001 1h2a1 1 0 001-1V4a1 1 0 00-1-1z" id="a"/></defs><g transform="translate(-1 -3)" fill="none" fill-rule="evenodd"><mask id="b" fill="#fff"><use xlink:href="#a"/></mask><g mask="url(#b)" fill="#3B3E40"><path d="M0 0h16v16H0z"/></g></g></svg>
